images/illustration.svg

<svg xmlns="http://www.w3.org/2000/svg" viewBox="0 0 463.5 443.5" enable-background="new 0 0 463.5 443.5"><style type="text/css">.st0{fill:#454B4F;} .st1{fill:#FEE56D;} .st2{fill:#E6B7D5;} .st3{fill:#F5F5F5;} .st4{fill:#BCBEC0;} .st5{fill:#D1D3D4;} .st6{fill:#00B0B0;} .st7{fill:#80CECA;} .st8{fill:#029E96;} .st9{fill:#231F20;} .st10{fill:#2D2D2D;} .st11{fill:#F1F2F2;} .st12{fill:#CECECE;}</style><path class="st0" d="M77 37h-7.7v.2l-8.5-.2 8-25.8.5 1.7v.2zM46.2 383.8h45.9v27.4h-45.9z"/><path class="st1" d="M46.2 84.5h45.9v299.2h-45.9z"/><path class="st2" d="M88 411.2v18.2c0 1.7-1.1 2.9-2.3 2.9h-16.5v.3h-18.1c-1-.2-1.9-1.4-1.9-3v-18.2h20v-.2h18.8z"/><path class="st3" d="M92.2 84.4h-46l14.6-47.4h16.2zM46.2 84.4v.1-.1z"/><path class="st4" d="M241.8 322.3v21.8c0 1.2-.8 2-2 2h-18.1v.1h-18.8c-1.2 0-2-.8-2-2v-21.8c0-1.2.8-2 2-2h18.7v-.1h18.2c1 .1 2 .8 2 2z"/><path class="st5" d="M225.4 433c0 1.8-1.4 3.5-3 3.8v-44.4c2.4-.5 4.1-2.3 4.1-4.8 0-2.6-2.3-4.8-4.8-4.8h-.3v-.2c-2.6.2-4.4 2.4-4.4 4.8 0 2.3 1.7 4.1 3.6 4.7v44.4c-1.7-.5-2.9-2-2.9-3.6s1.1-2.9 2.3-3.5l-18.7-42 4.8-41.4h15.4v.2h15.1l5 41.4-19 41.9c1.8.4 2.8 1.7 2.8 3.5z"/><path class="st6" d="M221.6 12.5z"/><path class="st7" d="M233.6 320.4h-25.2s-27.9-86.6 8.6-301.9c0 0 1-4.9 4.5-5.9h.1s.1 0 .1.1c.8.3 3 1.5 4.5 5.9 1.6 5.5 28.9 174.6 7.4 301.8z"/><path class="st8" d="M221.7 12.5c0 .1-.1 0-.1 0h.1z"/><path class="st9" d="M418.2 415.6v11.7c0 3.8-2.4 7.1-5.4 7.1h-73.9c-3 0-5.4-3.2-5.4-7.1v-11.7h84.7z"/><path class="st10" d="M418.2 115v10.4h-42.5v-10.4h42.5z"/><path class="st9" d="M375.8 115v10.4h-42.2v-10.4h42.2z"/><path class="st11" d="M333.6 125.6h84.6v5.6h-84.6z"/><path class="st9" d="M333.6 131.3h84.6v278.7h-84.6z"/><path class="st11" d="M333.6 409.8h84.6v5.6h-84.6z"/><path class="st4" d="M418.2 115h-42.4v.2h-42.2l20.2-54.7h21.9v-.1h21.4z"/><path class="st12" d="M357.1 37.6h37.3v22.9h-37.3z"/><path class="st9" d="M390.8 9v28.6h-30.1v-18.1l15-5.1z"/></svg>

<svg id="Layer_1" data-name="Layer 1" xmlns="http://www.w3.org/2000/svg" viewBox="0 0 372 427.8"><defs><style>.cls-1{fill:#454b4f;}.cls-2{fill:#fee56d;}.cls-3{fill:#e6b7d5;}.cls-4{fill:#f5f5f5;}.cls-5{fill:#bcbec0;}.cls-6{fill:#d1d3d4;}.cls-7{fill:#00b0b0;}.cls-8{fill:#029e96;}.cls-9{fill:#231f20;}.cls-10{fill:#2d2d2d;}.cls-11{fill:#f1f2f2;}.cls-12{fill:#cecece;}</style></defs><title>illustration</title><path class="cls-1" d="M77,37H69.3v0.2L60.8,37l8-25.8,0.5,1.7v0.2ZM46.2,383.8H92.1v27.4H46.2V383.8Z" transform="translate(-46.2 -9)"/><path class="cls-2" d="M46.2,84.5H92.1V383.7H46.2V84.5Z" transform="translate(-46.2 -9)"/><path class="cls-3" d="M88,411.2v18.2c0,1.7-1.1,2.9-2.3,2.9H69.2v0.3H51.1a2.9,2.9,0,0,1-1.9-3V411.4h20v-0.2H88Z" transform="translate(-46.2 -9)"/><path class="cls-4" d="M92.2,84.4h-46L60.8,37H77Zm-46,0v0Z" transform="translate(-46.2 -9)"/><path class="cls-5" d="M241.8,322.3v21.8a1.89,1.89,0,0,1-2,2H221.7v0.1H202.9a1.89,1.89,0,0,1-2-2V322.4a1.89,1.89,0,0,1,2-2h18.7v-0.1h18.2a2.07,2.07,0,0,1,2,2h0Z" transform="translate(-46.2 -9)"/><path class="cls-6" d="M225.4,433a4,4,0,0,1-3,3.8V392.4a4.84,4.84,0,0,0,4.1-4.8,4.94,4.94,0,0,0-4.8-4.8h-0.3v-0.2a4.79,4.79,0,0,0-4.4,4.8,5.07,5.07,0,0,0,3.6,4.7v44.4a3.91,3.91,0,0,1-2.9-3.6,4.05,4.05,0,0,1,2.3-3.5l-18.7-42,4.8-41.4h15.4v0.2h15.1l5,41.4-19,41.9a3.36,3.36,0,0,1,2.8,3.5h0Z" transform="translate(-46.2 -9)"/><path class="cls-7" d="M221.6,12.5" transform="translate(-46.2 -9)"/><path class="cls-3" d="M233.6,320.4H208.4S180.5,233.8,217,18.5c0,0,1-4.9,4.5-5.9h0.1a0.1,0.1,0,0,1,.1.1c0.8,0.3,3,1.5,4.5,5.9,1.6,5.5,28.9,174.6,7.4,301.8h0Z" transform="translate(-46.2 -9)"/><path class="cls-8" d="M221.7,12.5c0,0.1-.1,0-0.1,0h0.1Z" transform="translate(-46.2 -9)"/><path class="cls-9" d="M418.2,415.6v11.7c0,3.8-2.4,7.1-5.4,7.1H338.9c-3,0-5.4-3.2-5.4-7.1V415.6h84.7Z" transform="translate(-46.2 -9)"/><path class="cls-10" d="M418.2,115v10.4H375.7V115h42.5Z" transform="translate(-46.2 -9)"/><path class="cls-9" d="M375.8,115v10.4H333.6V115h42.2Z" transform="translate(-46.2 -9)"/><path class="cls-11" d="M333.6,125.6h84.6v5.6H333.6v-5.6Z" transform="translate(-46.2 -9)"/><path class="cls-9" d="M333.6,131.3h84.6V410H333.6V131.3Z" transform="translate(-46.2 -9)"/><path class="cls-11" d="M333.6,409.8h84.6v5.6H333.6v-5.6Z" transform="translate(-46.2 -9)"/><path class="cls-5" d="M418.2,115H375.8v0.2H333.6l20.2-54.7h21.9V60.4h21.4Z" transform="translate(-46.2 -9)"/><path class="cls-12" d="M357.1,37.6h37.3V60.5H357.1V37.6Z" transform="translate(-46.2 -9)"/><path class="cls-9" d="M390.8,9V37.6H360.7V19.5l15-5.1Z" transform="translate(-46.2 -9)"/></svg>
